svg/fluentui-system-icons/ic_fluent_channel_share_48_filled.svg

<svg width="48" height="48" viewBox="0 0 48 48" fill="none" xmlns="http://www.w3.org/2000/svg">
<path d="M12.475 6C8.89896 6 6 8.89896 6 12.475V24.525C6 28.101 8.89896 31 12.475 31H24.207C24.86 33.3085 26.9824 35 29.5 35C32.5376 35 35 32.5376 35 29.5C35 26.4624 32.5376 24 29.5 24C26.8039 24 24.5609 25.9399 24.0907 28.5H12.475C10.2797 28.5 8.5 26.7203 8.5 24.525V12.475C8.5 10.2797 10.2797 8.5 12.475 8.5H24.525C26.7203 8.5 28.5 10.2797 28.5 12.475V12.75C28.5 13.4404 29.0596 14 29.75 14C30.4404 14 31 13.4404 31 12.75V12.475C31 8.89896 28.101 6 24.525 6H12.475ZM17 35.75V35.25C17 34.5596 17.5596 34 18.25 34C18.9404 34 19.5 34.5596 19.5 35.25V35.75C19.5 37.8211 21.1789 39.5 23.25 39.5H35.75C37.8211 39.5 39.5 37.8211 39.5 35.75V23.25C39.5 21.1789 37.8211 19.5 35.75 19.5H23.9093C23.4391 22.0601 21.1961 24 18.5 24C15.4624 24 13 21.5376 13 18.5C13 15.4624 15.4624 13 18.5 13C21.0176 13 23.14 14.6915 23.793 17H35.75C39.2018 17 42 19.7982 42 23.25V35.75C42 39.2018 39.2018 42 35.75 42H23.25C19.7982 42 17 39.2018 17 35.75Z" fill="#212121"/>
</svg>

<svg xmlns="http://www.w3.org/2000/svg" width="48" height="48"><path d="M12.475 6A6.475 6.475 0 0 0 6 12.475v12.05A6.475 6.475 0 0 0 12.475 31h11.732a5.5 5.5 0 1 0-.116-2.5H12.475A3.975 3.975 0 0 1 8.5 24.525v-12.05A3.975 3.975 0 0 1 12.475 8.5h12.05a3.975 3.975 0 0 1 3.975 3.975v.275a1.25 1.25 0 1 0 2.5 0v-.275A6.475 6.475 0 0 0 24.525 6h-12.05ZM17 35.75v-.5a1.25 1.25 0 1 1 2.5 0v.5a3.75 3.75 0 0 0 3.75 3.75h12.5a3.75 3.75 0 0 0 3.75-3.75v-12.5a3.75 3.75 0 0 0-3.75-3.75H23.91a5.502 5.502 0 0 1-10.91-1A5.5 5.5 0 0 1 23.793 17H35.75A6.25 6.25 0 0 1 42 23.25v12.5A6.25 6.25 0 0 1 35.75 42h-12.5A6.25 6.25 0 0 1 17 35.75Z"/></svg>
